X:2083
T:Freehold Polka
O:england
R:Polka
M:C
C:Andy Hornby
A:Lancaster
N:Sept 95
K:Em
EFGF E2B2|G2E2 GABc|d2D2 F2D2|ADFA BAGF|\
EFGF E2B2| G2E2 GABc|d2cd BAGF|G2E2 E4:|
|:\
EFGF E2e2-|e2d2 B2AG|FGAF D2F2|A2F2 d2F2|\
EFGF E2e2-|e2d2 B2AG|FGAF DEFA|G2E2 E4:|
W:Copyright (C) Andy Hornby


